X:92
T:Maid on the Green
Z: id:dc-jig-74
M:6/8
L:1/8
K:G Major
d|gfg e2d|Bee dBA|BGG dBG|FAA ABd|!
gfg e2d|Bee dBA|BGG dBA|BGF G2:|!
d|gfg afd|gfg a2a|bag agf|def g2a|!
bgb afa|gfg e2d|Bee dBA|BGF G2:|!

